X:1
T:Scarborough Fair
M:3/4
L:1/4
K:Edor
"Em" E2 E | B B B | "D" F>G F | "Em" E3 | "G" z B d | "Em" e2 d |
w:Are you go-ing to Scar-bo-rough Fair? Pars-ley, sage, rose-
"A" B c A | "Em" B3- | B z e |"Em" e2 e | "G" d2 B/2B/2 | B A G |
w:mar-y and thyme._ Re-mem-ber me to the one who lives
"D" F D2- | D2 z | "Em" E2 B | "D" A2 G | F E D | "Em" E3- | E2 z |]
w: there.__ She once was a true love of mine._
%
%
W: 1. Are you going to Scarborough Fair?
W: Parsley, sage, rosemary and thyme.
W: Remember me to the one who lives there.
W: She once was a true love of mine.
W:
W: 2. Tell her to make me a cambric shirt,
W: Parsley, sage, rosemary and thyme,
W: Without no seems nor needle work,
W: Then she'll be a true love of mine.
W:
W: 3. Tell her to find me an acre of land,
W: Parsley, sage, rosemary and thyme,
W: Between the salt water and the sea strands,
W: Then she'll be a true love of mine.
W:
W: 4. Tell her to reap it with a sickle of leather,
W: Parsley, sage, rosemary and thyme,
W: And gather it all in a bunch of heather,
W: Then she'll be a true love of mine.
W:
W: 5. Are you going to Scarborough Fair?
W: Parsley, sage, rosemary and thyme.
W: Remember me to the one who lives there.
W: She once was a true love of mine.
%

